X:371
T:37. MORRIS SET#1 (32 bar jigs)
T:Maid of the Mill, The
O:Abingdon
M:6/8
K:G
P:A
|:D|\
"G"D2G GFG|"Am"AGA "G"B2c|"C"BAG "D"AGF|"G"G3 GFE|\
"G"DGG G>FG|"Am"A>GA "G"B2c|"C"B>AG "D"A>GF|"G"G3 G2:|
P:B
|:G|\
"G"GBd "D"d2 d|d>cB "Am"c2A|"Em"B>cd dcB|"G"G3 "D"F2D|\
"G"D2G GFG|"Am"A>GA "G"B2c|"C"BAG "D"A2F|"G"G3 G2:|
